X: 177
T: the Minstrel Boy
C: words: Thomas Moore
C: music: Irish
%R: air, march
B: "The Everyday Song Book", 1927
F: http://www.library.pitt.edu/happybirthday/pdf/The_Everyday_Song_Book.pdf
Z: 2017 John Chambers <jc:trillian.mit.edu>
M: 4/4
L: 1/8
K: Eb
% - - - - - - - - - - - - - - - - - - - - - - - - - - - - -
B,2 | E3 F (AG) F E | G2 B2 e3 d> e | c3 B (G>A B) G |
w: 1.~The min-strel boy* to the war has gone,      In the ranks of death** you'll
w: 2.~The min-strel fell!* but the foe-man's chain Could not bring his proud** soul
%
(F3 E) E2 B,2 | E3 F (AG) F E | G2 B2 e2 d> e | c2 B2
w: find* him, His fa-ther's sword* he has gird-ed on, And his wild harp
w: un - der,  The harp he loved* nev-er spoke a-gain, For he tore its
%
(G>A B) G | (F3 E) E3 B | e2 d2 c2 z (d/ e/) | d2 c2 B2 z |
w: slung** be-hind* him, | "Land of Song," said the war-rior bard,
w: chords** a-sun-*der,     And said: "No chains shall* sul-ly thee,
%
=B | c3 G G2 =B2 | (c3 d) He2 e2 | E3 F (AG) (F E) |
w:"Tho' all the world be-trays* thee, One sword, at least* thy*
w: Thou soul of love and brav-*'ry!   Thy songs were made* for the
%
G2 B2 e2 (d e) | c3 B (G>A B) G | (F3 E) E2 |]
w: rights shall guard, One* faith-ful harp** shall praise* thee."
w: pure and free,      They shall nev-er sound** in slav-*'ry."
% - - - - - - - - - - - - - - - - - - - - - - - - - - - - -
